X: 2532
T: Ballygawley, The
R: barndance
M: 4/4
K: Dmajor
DB,|A,2DE FDD2|EFGE A2(3Bcd|cAAG EFGE|AFEF DCB,C|
A,2DE FDD2|EFGE A2(3Bcd|cAAG EAGE|F2D2D2DB,|
A,2DE FDD2|EFGE A2(3Bcd|cAAF G3B|AFEF DCB,C|
A,2DE FDD2|EFGE A2(3Bcd|cAAG EAGE|F2D2D2||
(3ABc|dfAd d2ed|ceAB c3e|dcAF G3B|AFEF DB, B,2|
dfAd d2ed|ceAB c3e|dcAF G2FD|A,2D2D2 (3Acd
dfAd d2ed|ceAB c3e|dcAF G3B|AFEF DB, B,|
A,2DE FDD2|EFGE A2(3Bcd|cAAG EAGE|F2D2D2|

